public/images/steps/icon-info.svg

<svg height="1080" preserveAspectRatio="xMidYMid meet" viewBox="0 0 810 809.999993" width="1080" xmlns="http://www.w3.org/2000/svg" xmlns:xlink="http://www.w3.org/1999/xlink" zoomAndPan="magnify"><clipPath id="a"><path d="m172.625 164.128906h514.5v449.25h-514.5zm0 0"/></clipPath><path d="m605.832031 423.507812c0 2.839844-2.3125 5.148438-5.148437 5.148438-2.839844 0-5.148438-2.308594-5.148438-5.148438v-39.554687c0-2.839844 2.308594-5.148437 5.148438-5.148437 2.835937 0 5.148437 2.308593 5.148437 5.148437zm-5.148437-57.660156c-9.988282 0-18.117188 8.121094-18.117188 18.105469v39.554687c0 9.984376 8.128906 18.109376 18.117188 18.109376 9.992187 0 18.117187-8.125 18.117187-18.109376v-39.554687c0-9.984375-8.125-18.105469-18.117187-18.105469" fill="#554d35"/><path d="m600.683594 341.117188c2.65625 0 4.820312 2.160156 4.820312 4.816406 0 2.652344-2.164062 4.8125-4.820312 4.8125s-4.816406-2.160156-4.816406-4.8125c0-2.65625 2.160156-4.816406 4.816406-4.816406zm0 22.59375c9.804687 0 17.785156-7.976563 17.785156-17.777344 0-9.804688-7.980469-17.777344-17.785156-17.777344-9.808594 0-17.789063 7.972656-17.789063 17.777344 0 9.800781 7.980469 17.777344 17.789063 17.777344" fill="#554d35"/><g clip-path="url(#a)"><path d="m600.683594 455.832031c-40.472656 0-73.398438-32.90625-73.398438-73.351562 0-40.4375 32.917969-73.339844 73.386719-73.347657.003906 0 .007813.003907.011719.003907 0 0 .007812-.003907.011718-.003907 40.464844.007813 73.382813 32.910157 73.382813 73.347657 0 40.445312-32.925781 73.351562-73.394531 73.351562zm-6.484375 53.058594-180.21875 70.84375v-289.355469l180.21875-70.839844v76.960938c-44.597657 3.335938-79.886719 40.578125-79.886719 85.980469 0 45.40625 35.289062 82.648437 79.886719 85.984375zm-37.300781-325.382813v36.769532l-118.847657 46.714844zm-155.886719 405.832032c0 6.101562-4.96875 11.074218-11.078125 11.074218-6.105469 0-11.074219-4.972656-11.074219-11.167968v-293.765625l8.699219 3.417969c.070312.027343.140625.015624.210937.039062.691407.246094 1.402344.398438 2.125.40625h.085938c.722656-.007812 1.433593-.160156 2.125-.40625.066406-.023438.140625-.011719.203125-.039062l8.703125-3.417969zm-35.117188-9.605469-180.21875-70.84375v-289.351563l28.289063 11.121094s.003906 0 .007812.003906l151.921875 59.714844zm-142.917969-396.226563 118.847657 83.484376-118.847657-46.714844zm384.195313 112.992188v-86.472656c0-2.140625-1.0625-4.148438-2.835937-5.355469-1.773438-1.207031-4.023438-1.460937-6.027344-.675781l-28.441406 11.179687v-44.144531c0-2.417969-1.347657-4.636719-3.496094-5.75-2.144532-1.113281-4.734375-.941406-6.722656.445312l-169.714844 119.21875-169.714844-119.21875c-1.988281-1.394531-4.570312-1.5625-6.71875-.445312-2.144531 1.113281-3.496094 3.332031-3.496094 5.75v44.144531l-28.441406-11.179687c-2.003906-.785156-4.253906-.53125-6.027344.675781-1.769531 1.207031-2.832031 3.214844-2.832031 5.355469v303.28125c0 2.664062 1.632813 5.054687 4.109375 6.03125l189.5 74.484375c2.105469 11.117187 11.894531 19.550781 23.621094 19.550781 11.703125 0 21.480468-8.394531 23.617187-19.542969l189.507813-74.492187c2.480468-.976563 4.113281-3.367188 4.113281-6.03125v-44.84375c44.589844-3.335938 79.878906-40.578125 79.878906-85.984375 0-45.402344-35.289062-82.644531-79.878906-85.980469" fill="#554d35"/></g></svg>

<svg xmlns="http://www.w3.org/2000/svg" xmlns:xlink="http://www.w3.org/1999/xlink" width="1080" zoomAndPan="magnify" viewBox="0 0 810 809.999993" height="1080" preserveAspectRatio="xMidYMid meet" version="1.0"><defs><clipPath id="d59908b0f9"><path d="M 172.625 164.128906 L 687.125 164.128906 L 687.125 613.378906 L 172.625 613.378906 Z M 172.625 164.128906 " clip-rule="nonzero"/></clipPath></defs><path fill="#554d35" d="M 605.832031 423.507812 C 605.832031 426.347656 603.519531 428.65625 600.683594 428.65625 C 597.84375 428.65625 595.535156 426.347656 595.535156 423.507812 L 595.535156 383.953125 C 595.535156 381.113281 597.84375 378.804688 600.683594 378.804688 C 603.519531 378.804688 605.832031 381.113281 605.832031 383.953125 Z M 600.683594 365.847656 C 590.695312 365.847656 582.566406 373.96875 582.566406 383.953125 L 582.566406 423.507812 C 582.566406 433.492188 590.695312 441.617188 600.683594 441.617188 C 610.675781 441.617188 618.800781 433.492188 618.800781 423.507812 L 618.800781 383.953125 C 618.800781 373.96875 610.675781 365.847656 600.683594 365.847656 " fill-opacity="1" fill-rule="nonzero"/><path fill="#554d35" d="M 600.683594 341.117188 C 603.339844 341.117188 605.503906 343.277344 605.503906 345.933594 C 605.503906 348.585938 603.339844 350.746094 600.683594 350.746094 C 598.027344 350.746094 595.867188 348.585938 595.867188 345.933594 C 595.867188 343.277344 598.027344 341.117188 600.683594 341.117188 Z M 600.683594 363.710938 C 610.488281 363.710938 618.46875 355.734375 618.46875 345.933594 C 618.46875 336.128906 610.488281 328.15625 600.683594 328.15625 C 590.875 328.15625 582.894531 336.128906 582.894531 345.933594 C 582.894531 355.734375 590.875 363.710938 600.683594 363.710938 " fill-opacity="1" fill-rule="nonzero"/><g clip-path="url(#d59908b0f9)"><path fill="#554d35" d="M 600.683594 455.832031 C 560.210938 455.832031 527.285156 422.925781 527.285156 382.480469 C 527.285156 342.042969 560.203125 309.140625 600.671875 309.132812 C 600.675781 309.132812 600.679688 309.136719 600.683594 309.136719 C 600.683594 309.136719 600.691406 309.132812 600.695312 309.132812 C 641.160156 309.140625 674.078125 342.042969 674.078125 382.480469 C 674.078125 422.925781 641.152344 455.832031 600.683594 455.832031 Z M 594.199219 508.890625 L 413.980469 579.734375 L 413.980469 290.378906 L 594.199219 219.539062 L 594.199219 296.5 C 549.601562 299.835938 514.3125 337.078125 514.3125 382.480469 C 514.3125 427.886719 549.601562 465.128906 594.199219 468.464844 Z M 556.898438 183.507812 L 556.898438 220.277344 L 438.050781 266.992188 Z M 401.011719 589.339844 C 401.011719 595.441406 396.042969 600.414062 389.933594 600.414062 C 383.828125 600.414062 378.859375 595.441406 378.859375 589.246094 L 378.859375 295.480469 L 387.558594 298.898438 C 387.628906 298.925781 387.699219 298.914062 387.769531 298.9375 C 388.460938 299.183594 389.171875 299.335938 389.894531 299.34375 C 389.921875 299.34375 389.949219 299.34375 389.980469 299.34375 C 390.703125 299.335938 391.414062 299.183594 392.105469 298.9375 C 392.171875 298.914062 392.246094 298.925781 392.308594 298.898438 L 401.011719 295.480469 Z M 365.894531 579.734375 L 185.675781 508.890625 L 185.675781 219.539062 L 213.964844 230.660156 C 213.964844 230.660156 213.96875 230.660156 213.972656 230.664062 L 365.894531 290.378906 Z M 222.976562 183.507812 L 341.824219 266.992188 L 222.976562 220.277344 Z M 607.171875 296.5 L 607.171875 210.027344 C 607.171875 207.886719 606.109375 205.878906 604.335938 204.671875 C 602.5625 203.464844 600.3125 203.210938 598.308594 203.996094 L 569.867188 215.175781 L 569.867188 171.03125 C 569.867188 168.613281 568.519531 166.394531 566.371094 165.28125 C 564.226562 164.167969 561.636719 164.339844 559.648438 165.726562 L 389.933594 284.945312 L 220.21875 165.726562 C 218.230469 164.332031 215.648438 164.164062 213.5 165.28125 C 211.355469 166.394531 210.003906 168.613281 210.003906 171.03125 L 210.003906 215.175781 L 181.5625 203.996094 C 179.558594 203.210938 177.308594 203.464844 175.535156 204.671875 C 173.765625 205.878906 172.703125 207.886719 172.703125 210.027344 L 172.703125 513.308594 C 172.703125 515.972656 174.335938 518.363281 176.8125 519.339844 L 366.3125 593.824219 C 368.417969 604.941406 378.207031 613.375 389.933594 613.375 C 401.636719 613.375 411.414062 604.980469 413.550781 593.832031 L 603.058594 519.339844 C 605.539062 518.363281 607.171875 515.972656 607.171875 513.308594 L 607.171875 468.464844 C 651.761719 465.128906 687.050781 427.886719 687.050781 382.480469 C 687.050781 337.078125 651.761719 299.835938 607.171875 296.5 " fill-opacity="1" fill-rule="nonzero"/></g></svg>
